icons/Finance/ticket-2-fill.svg

<svg viewBox="0 0 24 24" xmlns="http://www.w3.org/2000/svg"><path d="M21.0049 2.99951C21.5572 2.99951 22.0049 3.44723 22.0049 3.99951V9.49951C20.6242 9.49951 19.5049 10.6188 19.5049 11.9995C19.5049 13.3802 20.6242 14.4995 22.0049 14.4995V19.9995C22.0049 20.5518 21.5572 20.9995 21.0049 20.9995H3.00488C2.4526 20.9995 2.00488 20.5518 2.00488 19.9995V14.4995C3.38559 14.4995 4.50488 13.3802 4.50488 11.9995C4.50488 10.6188 3.38559 9.49951 2.00488 9.49951V3.99951C2.00488 3.44723 2.4526 2.99951 3.00488 2.99951H21.0049ZM16.0049 8.99951H8.00488V14.9995H16.0049V8.99951Z"/></svg>

<svg xmlns="http://www.w3.org/2000/svg" viewBox="0 0 24 24">
    <g>
        <path fill="none" d="M0 0h24v24H0z"/>
        <path d="M21 3a1 1 0 0 1 1 1v5.5a2.5 2.5 0 1 0 0 5V20a1 1 0 0 1-1 1H3a1 1 0 0 1-1-1v-5.5a2.5 2.5 0 1 0 0-5V4a1 1 0 0 1 1-1h18zm-5 6H8v6h8V9z"/>
    </g>
</svg>
